src/resources/flags/tz.svg

<svg height="336" viewBox="0 0 512 336" width="512" xmlns="http://www.w3.org/2000/svg"><g fill="none"><path d="m0 256.276v-247.173a8.829 8.829 0 0 1 8.828-8.828h379.586z" fill="#73af00"/><path d="m512 79.724v247.172a8.829 8.829 0 0 1 -8.828 8.828h-379.586z" fill="#4173cd"/><path d="m512 84.702v-75.599a8.829 8.829 0 0 0 -8.828-8.828h-120.033l-383.139 251.023v75.598a8.829 8.829 0 0 0 8.828 8.828h120.033z" fill="#ffe15a"/><path d="m512 53.047v-43.944a8.829 8.829 0 0 0 -8.828-8.828h-71.718l-431.454 282.678v43.944a8.829 8.829 0 0 0 8.828 8.828h71.718z" fill="#464655"/></g></svg>

<svg width="512" height="336" viewBox="0 0 512 336" xmlns="http://www.w3.org/2000/svg">
  <g fill="none">
    <path d="M0 256.276V9.103A8.829 8.829 0 0 1 8.828.275h379.586L0 256.276z" fill="#73AF00"/>
    <path d="M512 79.724v247.172a8.829 8.829 0 0 1-8.828 8.828H123.586L512 79.724z" fill="#4173CD"/>
    <path d="M512 84.702V9.103a8.829 8.829 0 0 0-8.828-8.828H383.139L0 251.298v75.598a8.829 8.829 0 0 0 8.828 8.828h120.033L512 84.702z" fill="#FFE15A"/>
    <path d="M512 53.047V9.103a8.829 8.829 0 0 0-8.828-8.828h-71.718L0 282.953v43.944a8.829 8.829 0 0 0 8.828 8.828h71.718L512 53.047z" fill="#464655"/>
  </g>
</svg>
